src/lib/packages/icons/src/assets/filled/percent-tag.svg

<svg width="24" height="24" viewBox="0 0 24 24" fill="none" xmlns="http://www.w3.org/2000/svg">
<path d="M17.667 2H6.33398C4.11198 2 3.00098 3.11101 3.00098 5.33301V15.333C3.00098 17.555 4.11198 18.666 6.33398 18.666H7.83398C8.35898 18.666 8.85299 18.913 9.16699 19.333L10.667 21.333C11.334 22.222 12.667 22.222 13.334 21.333L14.834 19.333C15.149 18.913 15.643 18.666 16.167 18.666H17.667C19.889 18.666 21 17.555 21 15.333V5.33301C21 3.11101 19.889 2 17.667 2ZM9.25 6.5C9.94 6.5 10.5 7.06 10.5 7.75C10.5 8.44 9.94 9 9.25 9C8.56 9 8 8.44 8 7.75C8 7.06 8.56 6.5 9.25 6.5ZM14.75 14.5C14.06 14.5 13.5 13.94 13.5 13.25C13.5 12.56 14.06 12 14.75 12C15.44 12 16 12.56 16 13.25C16 13.94 15.44 14.5 14.75 14.5ZM16.53 7.03003L8.53003 15.03C8.38403 15.176 8.192 15.25 8 15.25C7.808 15.25 7.61597 15.177 7.46997 15.03C7.17697 14.737 7.17697 14.262 7.46997 13.969L15.47 5.96899C15.763 5.67599 16.238 5.67599 16.531 5.96899C16.824 6.26199 16.823 6.73703 16.53 7.03003Z" fill="currentColor"/>
</svg>

<svg xmlns="http://www.w3.org/2000/svg" width="24" height="24" fill="none"><path fill="currentColor" d="M17.667 2H6.334C4.112 2 3.001 3.111 3.001 5.333v10c0 2.222 1.111 3.333 3.333 3.333h1.5c.525 0 1.019.247 1.333.667l1.5 2c.667.889 2 .889 2.667 0l1.5-2c.315-.42.809-.667 1.333-.667h1.5c2.222 0 3.333-1.111 3.333-3.333v-10C21 3.111 19.889 2 17.667 2ZM9.25 6.5a1.25 1.25 0 1 1 0 2.5 1.25 1.25 0 0 1 0-2.5Zm5.5 8a1.25 1.25 0 1 1 0-2.5 1.25 1.25 0 0 1 0 2.5Zm1.78-7.47-8 8a.748.748 0 0 1-1.06 0 .75.75 0 0 1 0-1.061l8-8a.75.75 0 1 1 1.06 1.061Z"/></svg>
